flaticon/transport/pickup-truck.svg

<svg xmlns="http://www.w3.org/2000/svg" width="32" height="32" viewBox="0 0 24 24">
    <path d="M4.203125 16.414062C3.742188 16.414062 3.363281 16.792969 3.363281 17.253906 3.363281 17.714844 3.742188 18.09375 4.203125 18.09375 4.664062 18.09375 5.042969 17.714844 5.042969 17.253906 5.042969 16.792969 4.664062 16.414062 4.203125 16.414062zM18.914062 16.414062C18.453125 16.414062 18.074219 16.792969 18.074219 17.253906 18.074219 17.714844 18.453125 18.09375 18.914062 18.09375 19.375 18.09375 19.753906 17.714844 19.753906 17.253906 19.753906 16.792969 19.375 16.414062 18.914062 16.414062zM18.914062 16.414062"/>
    <path d="M 23.621094 9.5625 L 19.964844 5.527344 C 19.671875 5.234375 19.292969 5.066406 18.914062 5.066406 L 15.046875 5.066406 C 14.375 5.066406 13.871094 5.570312 13.871094 6.199219 L 13.871094 12.628906 L 11.347656 12.628906 L 11.347656 11.371094 L 12.609375 11.371094 C 12.863281 11.371094 13.03125 11.203125 13.03125 10.949219 C 13.03125 10.695312 12.863281 10.527344 12.609375 10.527344 L 11.347656 10.527344 L 11.347656 9.6875 L 12.609375 9.6875 C 12.863281 9.6875 13.03125 9.519531 13.03125 9.269531 C 13.03125 9.015625 12.863281 8.847656 12.609375 8.847656 L 11.347656 8.847656 L 11.347656 8.007812 L 12.609375 8.007812 C 12.863281 8.007812 13.03125 7.839844 13.03125 7.585938 C 13.03125 7.335938 12.863281 7.167969 12.609375 7.167969 L 11.347656 7.167969 L 11.347656 6.324219 L 12.609375 6.324219 C 12.863281 6.324219 13.03125 6.15625 13.03125 5.90625 C 13.03125 5.652344 12.863281 5.484375 12.609375 5.484375 L 11.347656 5.484375 L 11.347656 4.222656 C 11.347656 3.972656 11.179688 3.804688 10.929688 3.804688 C 10.675781 3.804688 10.507812 3.972656 10.507812 4.222656 L 10.507812 5.484375 L 2.523438 5.484375 L 2.523438 4.222656 C 2.523438 3.972656 2.355469 3.804688 2.101562 3.804688 C 1.847656 3.804688 1.679688 3.972656 1.679688 4.222656 L 1.679688 5.484375 L 0.421875 5.484375 C 0.167969 5.484375 0 5.652344 0 5.90625 C 0 6.15625 0.167969 6.324219 0.421875 6.324219 L 1.679688 6.324219 L 1.679688 7.167969 L 0.421875 7.167969 C 0.167969 7.167969 0 7.335938 0 7.585938 C 0 7.839844 0.167969 8.007812 0.421875 8.007812 L 1.679688 8.007812 L 1.679688 8.847656 L 0.421875 8.847656 C 0.167969 8.847656 0 9.015625 0 9.269531 C 0 9.519531 0.167969 9.6875 0.421875 9.6875 L 1.679688 9.6875 L 1.679688 10.527344 L 0.421875 10.527344 C 0.167969 10.527344 0 10.695312 0 10.949219 C 0 11.203125 0.167969 11.371094 0.421875 11.371094 L 1.679688 11.371094 L 1.679688 12.628906 L 0 12.628906 L 0 16.664062 C 0 17.210938 0.460938 17.675781 1.007812 17.675781 L 1.289062 17.675781 C 1.492188 19.109375 2.707031 20.195312 4.203125 20.195312 C 5.699219 20.195312 6.914062 19.109375 7.117188 17.675781 L 16 17.675781 C 16.203125 19.109375 17.417969 20.195312 18.914062 20.195312 C 20.410156 20.195312 21.625 19.109375 21.828125 17.675781 L 22.949219 17.675781 C 23.496094 17.675781 23.957031 17.210938 24 16.707031 L 24 10.527344 C 24 10.152344 23.875 9.8125 23.621094 9.5625 Z M 18.914062 5.90625 C 19.039062 5.90625 19.207031 5.988281 19.335938 6.074219 L 22.949219 10.109375 L 16.8125 10.109375 L 16.8125 5.90625 Z M 2.523438 6.324219 L 10.507812 6.324219 L 10.507812 7.167969 L 2.523438 7.167969 Z M 2.523438 8.007812 L 10.507812 8.007812 L 10.507812 8.847656 L 2.523438 8.847656 Z M 2.523438 9.6875 L 10.507812 9.6875 L 10.507812 10.527344 L 2.523438 10.527344 Z M 2.523438 11.371094 L 10.507812 11.371094 L 10.507812 12.628906 L 2.523438 12.628906 Z M 4.203125 19.355469 C 3.027344 19.355469 2.101562 18.429688 2.101562 17.253906 C 2.101562 16.078125 3.027344 15.152344 4.203125 15.152344 C 5.378906 15.152344 6.304688 16.078125 6.304688 17.253906 C 6.304688 18.429688 5.378906 19.355469 4.203125 19.355469 Z M 18.914062 19.355469 C 17.738281 19.355469 16.8125 18.429688 16.8125 17.253906 C 16.8125 16.078125 17.738281 15.152344 18.914062 15.152344 C 20.089844 15.152344 21.015625 16.078125 21.015625 17.253906 C 21.015625 18.429688 20.089844 19.355469 18.914062 19.355469 Z M 22.949219 16.832031 L 21.828125 16.832031 C 21.625 15.398438 20.410156 14.3125 18.914062 14.3125 C 18.90625 14.3125 18.902344 14.3125 18.894531 14.3125 C 18.886719 14.3125 18.878906 14.3125 18.871094 14.3125 C 17.402344 14.3125 16.183594 15.40625 15.972656 16.832031 L 7.117188 16.832031 C 6.925781 15.488281 5.847656 14.449219 4.480469 14.324219 C 4.46875 14.324219 4.460938 14.324219 4.449219 14.324219 C 4.414062 14.320312 4.378906 14.316406 4.34375 14.316406 C 4.296875 14.3125 4.25 14.3125 4.203125 14.3125 C 4.15625 14.3125 4.109375 14.3125 4.0625 14.316406 C 4.027344 14.316406 3.992188 14.320312 3.957031 14.324219 C 3.945312 14.324219 3.9375 14.324219 3.925781 14.324219 C 2.558594 14.449219 1.480469 15.488281 1.289062 16.832031 L 1.007812 16.832031 C 0.925781 16.832031 0.839844 16.75 0.839844 16.664062 L 0.839844 13.472656 L 14.710938 13.472656 L 14.710938 6.199219 C 14.710938 6.03125 14.835938 5.90625 15.046875 5.90625 L 15.972656 5.90625 L 15.972656 10.234375 C 15.972656 10.613281 16.308594 10.949219 16.6875 10.949219 L 23.117188 10.949219 L 23.117188 12.210938 L 21.015625 12.210938 C 20.761719 12.210938 20.59375 12.378906 20.59375 12.628906 C 20.59375 12.882812 20.761719 13.050781 21.015625 13.050781 L 23.117188 13.050781 L 23.117188 16.664062 C 23.117188 16.75 23.035156 16.832031 22.949219 16.832031 Z M 22.949219 16.832031"/>
</svg>

<svg xmlns="http://www.w3.org/2000/svg" width="32" height="32" viewBox="0 0 24 24">
    <path d="M4.203 16.414c-.46 0-.84.379-.84.84 0 .46.38.84.84.84.461 0 .84-.38.84-.84 0-.461-.379-.84-.84-.84zm0 0M18.914 16.414c-.46 0-.84.379-.84.84 0 .46.38.84.84.84.461 0 .84-.38.84-.84 0-.461-.379-.84-.84-.84zm0 0"/>
    <path d="M23.621 9.563l-3.656-4.036a1.505 1.505 0 0 0-1.05-.46h-3.868c-.672 0-1.176.503-1.176 1.132v6.43h-2.523V11.37h1.261c.254 0 .422-.168.422-.422s-.168-.422-.422-.422h-1.261v-.84h1.261c.254 0 .422-.167.422-.417 0-.254-.168-.422-.422-.422h-1.261v-.84h1.261c.254 0 .422-.168.422-.422 0-.25-.168-.418-.422-.418h-1.261v-.844h1.261c.254 0 .422-.168.422-.418 0-.254-.168-.422-.422-.422h-1.261V4.223c0-.25-.168-.418-.418-.418-.254 0-.422.168-.422.418v1.261H2.523V4.223c0-.25-.168-.418-.421-.418-.254 0-.422.168-.422.418v1.261H.422c-.254 0-.422.168-.422.422 0 .25.168.418.422.418H1.68v.844H.422c-.254 0-.422.168-.422.418 0 .254.168.422.422.422H1.68v.84H.422c-.254 0-.422.168-.422.422 0 .25.168.418.422.418H1.68v.84H.422c-.254 0-.422.167-.422.421s.168.422.422.422H1.68v1.258H0v4.035c0 .547.46 1.012 1.008 1.012h.281a2.925 2.925 0 0 0 2.914 2.52 2.925 2.925 0 0 0 2.914-2.52H16a2.925 2.925 0 0 0 2.914 2.52 2.925 2.925 0 0 0 2.914-2.52h1.121c.547 0 1.008-.465 1.051-.969v-6.18c0-.375-.125-.714-.379-.964zm-4.707-3.657c.125 0 .293.082.422.168l3.613 4.035h-6.137V5.906zm-16.39.418h7.984v.844H2.523zm0 1.684h7.984v.84H2.523zm0 1.68h7.984v.84H2.523zm0 1.683h7.984v1.258H2.523zm1.68 7.984a2.083 2.083 0 0 1-2.102-2.101c0-1.176.925-2.102 2.101-2.102s2.102.926 2.102 2.102a2.083 2.083 0 0 1-2.102 2.101zm14.71 0a2.083 2.083 0 0 1-2.102-2.101c0-1.176.926-2.102 2.102-2.102 1.176 0 2.102.926 2.102 2.102a2.083 2.083 0 0 1-2.102 2.101zm4.035-2.523h-1.12a2.925 2.925 0 0 0-2.915-2.52h-.043c-1.469 0-2.687 1.094-2.898 2.52H7.117a2.924 2.924 0 0 0-2.637-2.508h-.03a.958.958 0 0 0-.106-.008c-.047-.004-.094-.004-.14-.004-.048 0-.095 0-.141.004a.958.958 0 0 0-.106.008h-.031a2.924 2.924 0 0 0-2.637 2.508h-.281c-.082 0-.168-.082-.168-.168v-3.191h13.87V6.199c0-.168.126-.293.337-.293h.926v4.328c0 .38.336.715.714.715h6.43v1.262h-2.101c-.254 0-.422.168-.422.418 0 .254.168.422.422.422h2.101v3.613a.178.178 0 0 1-.168.168zm0 0"/>
</svg>
